packages/icons/src/triangle-exclamation.svg

<svg width="24" height="24" viewBox="0 0 24 24" fill="none" xmlns="http://www.w3.org/2000/svg">
<path fill-rule="evenodd" clip-rule="evenodd" d="M10.5025 4.40565C11.7498 3.66573 13.3641 3.96249 14.2603 5.09648L14.3686 5.24257L21.4919 15.5147C21.8229 15.9919 22 16.5572 22 17.1362C22 18.6613 20.7964 19.908 19.2788 19.9951L19.1089 20H4.89137C4.3088 20 3.73981 19.8257 3.25898 19.4998C1.99183 18.6411 1.63108 16.9604 2.40668 15.6718L2.50522 15.5192L9.59938 5.2471C9.76043 5.01391 9.9552 4.80593 10.1771 4.62968L10.3486 4.50355L10.5025 4.40565ZM12.8894 6.24903C12.5465 5.75453 11.8638 5.62903 11.3646 5.96871C11.2903 6.01928 11.2227 6.07863 11.1633 6.14534L11.0804 6.25075L3.98628 16.5228C3.64431 17.018 3.77232 17.694 4.27219 18.0327C4.4181 18.1316 4.5854 18.1937 4.75963 18.2146L4.89137 18.2225H19.1089C19.7146 18.2225 20.2055 17.7361 20.2055 17.1362C20.2055 16.9605 20.1625 16.7881 20.0811 16.6335L20.0128 16.5211L12.8894 6.24903ZM10.9724 14.8628H12.9662V16.8378H10.9724V14.8628ZM10.9724 8.44386H12.9662V12.8877H10.9724V8.44386Z" fill="black"/>
</svg>

<svg xmlns="http://www.w3.org/2000/svg" width="24" height="24" fill="none" viewBox="0 0 24 24">
  <path fill="#000" fill-rule="evenodd" d="M10.502 4.406a2.91 2.91 0 0 1 3.758.69l.109.147 7.123 10.272A2.85 2.85 0 0 1 22 17.136c0 1.525-1.204 2.772-2.721 2.86l-.17.004H4.89a2.91 2.91 0 0 1-1.632-.5 2.847 2.847 0 0 1-.852-3.828l.098-.153L9.6 5.247a2.87 2.87 0 0 1 .578-.617l.172-.126.153-.098Zm2.387 1.843a1.103 1.103 0 0 0-1.726-.104l-.083.106-7.094 10.272a1.08 1.08 0 0 0 .286 1.51c.146.099.313.16.488.182l.131.008H19.11c.606 0 1.096-.487 1.096-1.087 0-.175-.042-.348-.124-.502l-.068-.113L12.889 6.25Zm-1.917 8.614h1.994v1.975h-1.994v-1.975Zm0-6.42h1.994v4.445h-1.994V8.444Z" clip-rule="evenodd"/>
</svg>
